src/shared/svg/sidebar/Settings.svg

<svg width="20" height="20" viewBox="0 0 20 20" fill="none" xmlns="http://www.w3.org/2000/svg">
<g clip-path="url(#clip0_4870_104622)">
<path d="M6.25005 10C6.25005 7.89453 7.89458 6.25 10.0001 6.25C12.0704 6.25 13.75 7.89453 13.75 10C13.75 12.0703 12.0704 13.75 10.0001 13.75C7.89458 13.75 6.25005 12.0703 6.25005 10ZM10.0001 8.125C8.9649 8.125 8.12505 8.96484 8.12505 10C8.12505 11.0352 8.9649 11.875 10.0001 11.875C11.0352 11.875 11.875 11.0352 11.875 10C11.875 8.96484 11.0352 8.125 10.0001 8.125ZM11.4493 1.17188e-05C12.3165 1.17188e-05 13.0704 0.593359 13.2735 1.43516L13.5782 2.70352C13.9102 2.86562 14.2266 3.04961 14.5274 3.25312L15.7813 2.88398C16.6133 2.63906 17.504 2.99492 17.9375 3.74492L19.3868 6.25391C19.8165 7.00391 19.6797 7.95312 19.0547 8.55078L18.1055 9.41797C18.1172 9.63281 18.125 9.81641 18.125 10C18.125 10.1836 18.1172 10.3672 18.1055 10.5469L19.0547 11.4492C19.6797 12.0469 19.8165 12.9961 19.3868 13.7461L17.9375 16.2539C17.504 17.0039 16.6133 17.3594 15.7813 17.1172L14.5274 16.7461C14.2266 16.9492 13.9102 17.1328 13.5782 17.2969L13.2735 18.5664C13.0704 19.4062 12.3165 20 11.4493 20H8.55083C7.68365 20 6.92974 19.4062 6.72661 18.5664L6.42193 17.2969C6.0899 17.1328 5.77349 16.9492 5.47271 16.7461L4.18365 17.1172C3.38794 17.3594 2.49771 17.0039 2.06451 16.2539L0.615289 13.7461C0.182086 12.9961 0.319117 12.0469 0.946539 11.4492L1.89341 10.5469C1.8813 10.3672 1.87505 10.1836 1.87505 9.96484C1.87505 9.81641 1.8813 9.63281 1.89341 9.41797L0.946539 8.55078C0.319078 7.95312 0.182086 7.00391 0.615289 6.25391L2.06451 3.74492C2.49771 2.99492 3.38794 2.63906 4.18365 2.88398L5.47271 3.25312C5.77349 3.04961 6.0899 2.86562 6.42193 2.70352L6.72661 1.43516C6.92974 0.592969 7.68365 0 8.55083 0L11.4493 1.17188e-05ZM8.0274 4.04688L7.5899 4.23047C7.0938 4.4375 6.63286 4.70703 6.2149 5.02734L5.83599 5.31641L3.68833 4.68359L2.23873 7.19141L3.85982 8.73438L3.80005 9.20312C3.76724 9.46484 3.75005 9.73047 3.75005 10C3.75005 10.2695 3.76724 10.5352 3.80005 10.7969L3.85982 11.2656L2.23912 12.8086L3.68833 15.3164L5.83599 14.6836L6.2149 14.9727C6.63286 15.293 7.0938 15.5625 7.5899 15.7695L8.0274 15.9531L8.55083 18.125H11.4493L11.9727 15.9531L12.4102 15.7695C12.9063 15.5625 13.3672 15.293 13.7852 14.9727L14.1641 14.6836L16.3125 15.3164L17.7618 12.8086L16.1407 11.2656L16.1993 10.7969C16.2344 10.5352 16.25 10.2695 16.25 10C16.25 9.73047 16.2344 9.46484 16.1993 9.20312L16.1407 8.73438L17.7618 7.19141L16.3125 4.68359L14.1641 5.31641L13.7852 5.02734C13.3672 4.70703 12.9063 4.4375 12.4102 4.23047L11.9727 4.04688L11.4493 1.875H8.55083L8.0274 4.04688Z" fill="#8A8DBA"/>
</g>
<defs>
<clipPath id="clip0_4870_104622">
<rect width="20" height="20" fill="white"/>
</clipPath>
</defs>
</svg>

<svg width="20" height="20" viewBox="0 0 20 20" fill="none" xmlns="http://www.w3.org/2000/svg"><g clip-path="url(#a)"><path d="M6.25 10c0-2.105 1.645-3.75 3.75-3.75A3.73 3.73 0 0 1 13.75 10 3.75 3.75 0 0 1 10 13.75 3.729 3.729 0 0 1 6.25 10ZM10 8.125a1.875 1.875 0 1 0 .001 3.751 1.875 1.875 0 0 0 0-3.751ZM11.45 0c.867 0 1.62.593 1.824 1.435l.304 1.269a7.8 7.8 0 0 1 .95.55l1.253-.37a1.877 1.877 0 0 1 2.156.86l1.45 2.51c.43.75.293 1.7-.332 2.297l-.95.867a8.44 8.44 0 0 1 0 1.129l.95.902c.625.598.762 1.547.332 2.297l-1.45 2.508a1.882 1.882 0 0 1-2.156.863l-1.254-.37c-.3.202-.617.386-.949.55l-.304 1.27A1.877 1.877 0 0 1 11.449 20H8.551a1.877 1.877 0 0 1-1.824-1.434l-.305-1.27a8.133 8.133 0 0 1-.95-.55l-1.288.371c-.796.242-1.686-.113-2.12-.863L.616 13.746c-.433-.75-.296-1.7.332-2.297l.946-.902a8.458 8.458 0 0 1 0-1.129l-.946-.867a1.876 1.876 0 0 1-.332-2.297l1.45-2.51c.433-.75 1.323-1.105 2.119-.86l1.289.37c.3-.204.617-.388.949-.55l.305-1.269A1.876 1.876 0 0 1 8.55 0h2.898ZM8.026 4.047l-.437.183a6.162 6.162 0 0 0-1.375.797l-.379.29-2.148-.633-1.45 2.507L3.86 8.734l-.06.47a6.4 6.4 0 0 0 0 1.593l.06.469-1.62 1.543 1.448 2.507 2.148-.632.379.289c.418.32.879.59 1.375.796l.437.184.524 2.172h2.898l.524-2.172.437-.183a6.162 6.162 0 0 0 1.375-.797l.38-.29 2.148.633 1.449-2.507-1.621-1.543.058-.47A5.99 5.99 0 0 0 16.25 10c0-.27-.016-.535-.05-.797l-.06-.469 1.622-1.543-1.45-2.507-2.148.632-.379-.289a6.163 6.163 0 0 0-1.375-.797l-.437-.183-.524-2.172H8.551l-.524 2.172Z" fill="#8A8DBA"/></g><defs><clipPath id="a"><path fill="#fff" d="M0 0h20v20H0z"/></clipPath></defs></svg>
